icon/lg/google-cloud-functions.svg

<?xml version="1.0" encoding="UTF-8"?>
<svg viewBox="0 0 256 231" version="1.1" xmlns="http://www.w3.org/2000/svg" xmlns:xlink="http://www.w3.org/1999/xlink" preserveAspectRatio="xMidYMid" height="1em" width="1em">
  <defs>
    <path d="M252.925854,103.237077 L200.327344,11.759667 C196.302579,4.62225703 188.80054,0.148424726 180.607902,0 L75.3908814,0 C67.1970912,0.14438548 59.6931984,4.61932363 55.6714398,11.759667 L3.05292985,102.997083 C-1.01764328,110.080373 -1.01764328,118.793146 3.05292985,125.876436 L55.6514404,217.87383 C59.6319755,225.112707 67.1159052,229.735134 75.370882,230.053486 L180.587903,230.053486 C188.842442,229.770144 196.339809,225.166896 200.327344,217.933829 L252.925854,126.456419 C257.024715,119.259311 257.024715,110.434185 252.925854,103.237077 Z" id="path-1"/>
  </defs>
  <g>
    <mask id="mask-2" fill="white">
      <use xlink:href="#path-1"/>
    </mask>
    <g fill-rule="nonzero"/>
    <path d="M252.925854,103.237077 L200.327344,11.759667 C196.302579,4.62225703 188.80054,0.148424726 180.607902,0 L75.3908814,0 C67.1970912,0.14438548 59.6931984,4.61932363 55.6714398,11.759667 L3.05292985,102.997083 C-1.01764328,110.080373 -1.01764328,118.793146 3.05292985,125.876436 L55.6514404,217.87383 C59.6319755,225.112707 67.1159052,229.735134 75.370882,230.053486 L180.587903,230.053486 C188.842442,229.770144 196.339809,225.166896 200.327344,217.933829 L252.925854,126.456419 C257.024715,119.259311 257.024715,110.434185 252.925854,103.237077 Z" fill="#4285F4" fill-rule="nonzero" mask="url(#mask-2)"/>
    <path d="M187.167605,84.731603 L179.915711,92.6409485 L181.549379,139.638797 L174.676019,149.60019 L170.691462,145.615633 L174.357254,145.615633 L174.357254,129.318795 L156.765435,111.726976 L143.468746,118.373047 L99.3678929,74.1725271 L78.1302045,85.5484371 L75.500397,107.583037 L82.9515184,147.906753 L93.7496677,158.485752 L88.8287399,165.478649 L153.076098,231.236816 L179.915711,231.236816 C188.138614,230.95456 197.044276,225.565698 201.016528,218.360352 L244.795336,142.356934 L187.167605,84.731603 Z" fill="#000000" fill-rule="nonzero" opacity="0.0700000003" mask="url(#mask-2)"/>
    <polygon fill="#FFFFFF" fill-rule="nonzero" mask="url(#mask-2)" points="88.8287399 165.478649 99.3678929 154.939496 83.5691247 139.140728 83.5691247 89.9712953 99.3678929 74.1725271 88.8287399 63.6333741 67.730511 84.731603 67.730511 144.38042"/>
    <circle fill="#FFFFFF" fill-rule="nonzero" mask="url(#mask-2)" cx="105.1455" cy="114.556012" r="7.47104423"/>
    <circle fill="#FFFFFF" fill-rule="nonzero" mask="url(#mask-2)" cx="127.498865" cy="114.556012" r="7.47104423"/>
    <circle fill="#FFFFFF" fill-rule="nonzero" mask="url(#mask-2)" cx="149.852229" cy="114.556012" r="7.47104423"/>
    <polygon fill="#FFFFFF" fill-rule="nonzero" mask="url(#mask-2)" points="166.069376 63.6333741 155.530223 74.1725271 171.328991 89.9712953 171.328991 139.140728 155.530223 154.939496 166.069376 165.478649 187.167605 144.38042 187.167605 84.731603"/>
  </g>
</svg>

<svg width="256" height="231" xmlns="http://www.w3.org/2000/svg" xmlns:xlink="http://www.w3.org/1999/xlink" preserveAspectRatio="xMidYMid"><defs><path d="M252.926 103.237 200.327 11.76A23.12 23.12 0 0 0 180.607 0H75.392a23.1 23.1 0 0 0-19.72 11.76L3.053 102.997a22.96 22.96 0 0 0 0 22.88l52.598 91.997a23.54 23.54 0 0 0 19.72 12.18h105.217a23.46 23.46 0 0 0 19.74-12.12l52.598-91.478a23.46 23.46 0 0 0 0-23.219Z" id="a"/></defs><mask id="b" fill="#fff"><use xlink:href="#a"/></mask><path d="M252.926 103.237 200.327 11.76A23.12 23.12 0 0 0 180.607 0H75.392a23.1 23.1 0 0 0-19.72 11.76L3.053 102.997a22.96 22.96 0 0 0 0 22.88l52.598 91.997a23.54 23.54 0 0 0 19.72 12.18h105.217a23.46 23.46 0 0 0 19.74-12.12l52.598-91.478a23.46 23.46 0 0 0 0-23.219Z" fill="#4285F4" mask="url(#b)"/><path d="m187.168 84.732-7.252 7.909 1.633 46.998-6.873 9.961-3.985-3.984h3.666v-16.297l-17.592-17.592-13.296 6.646-44.101-44.2L78.13 85.548l-2.63 22.035 7.452 40.324 10.798 10.579-4.921 6.993 64.247 65.758h26.84c8.223-.282 17.128-5.671 21.1-12.877l43.78-76.003-57.628-57.625Z" opacity=".07" mask="url(#b)"/><path fill="#FFF" mask="url(#b)" d="m88.829 165.479 10.539-10.54-15.799-15.798V89.97l15.799-15.798-10.54-10.54-21.097 21.099v59.648z"/><circle fill="#FFF" mask="url(#b)" cx="105.145" cy="114.556" r="7.471"/><circle fill="#FFF" mask="url(#b)" cx="127.499" cy="114.556" r="7.471"/><circle fill="#FFF" mask="url(#b)" cx="149.852" cy="114.556" r="7.471"/><path fill="#FFF" mask="url(#b)" d="m166.07 63.633-10.54 10.54L171.33 89.97v49.17l-15.799 15.798 10.54 10.54 21.098-21.099V84.732z"/></svg>
